X: 31997
T: Peeking Pup, The
R: waltz
M: 3/4
K: Gmajor
|:D2G GFG|ABc d2c|BGG BGG|AcB AGE|
D2G GFG|ABc d2c|BAG AGF|1 G3 G2E:|2 G3 G2d||
|:gdd gdd|c3 B2d|gdd gdd|c3 B3|
D2G GFG|ABc d2c|BAG AGF|1 G3 G2d:|2 G3 G2E||

